X:188
T:Frederick's Hambo (in E minor)
M:3/4
L:1/8
C:Frederick E. Wilson copyright 2005
R:Hambo
K:EMin
"Em"E2EF GA|"Am"B4A2|"Em7"B2d2B2|"Am"AG FA GF|"Em"E2EF GA|"Am"B4A2|"Em7"
B2d2B2|
"A"^c6|
"Em"E2EF GA|"Am"B4A2|"Em7"d2B2d2|"Am7"fe df ed|"Em"e2 ed B2|"Am"AB AG FA
|
"Em"GF EG FE|1"Am"F4 G2:||2"Am"F4 "D"G2||
"Am"A2e2"Am7"e2|"D"f3e d2|"Am"ef g2e2|"D"fg fedc|"Am"A2e2"Am7"e2|"D"f3g
a2|
"Am7"g2e2g2|"D"f3e dc|
"Am"A2e2"Am7"e2|"D"f3e d2|"Am"ef g2e2|"D"fga2f2|"Am"gf eg fe|"D"fedf ed|
1"Am"ed ce dc|"D"dc Bd cB:|2"C"e3f ge|"D"e4d2||"Em"e2||
